X:1
T: General Sheridan's Reel
C:
R:Reel
Q: 232
K:Dm
M:4/4
L:1/8
|:d2 AF d2 AF|d2 ^cd gf ed|c2 GE c2 GE|c2 =Bc ed c^c|
d2 AF d2 AF|d2 ^cd gf ed|^cd ag fe de|f2 d2 d4:|
|:((3cdc) AF ((3ded) BG|((3efe) ce fa d'c'|((3cdc) AF ((3ded) BG|((3efe) ce f4|
((3cdc) AF ((3ded) BG|((3efe) ce fa d'c'|((3bc'b) db ((3aba) ca|((3gag) eg f4:|
